static/fluentbit-operator.svg

<?xml version="1.0" encoding="UTF-8"?>
<svg width="48px" height="40px" viewBox="0 0 48 40" version="1.1" xmlns="http://www.w3.org/2000/svg" xmlns:xlink="http://www.w3.org/1999/xlink">
    <!-- Generator: Sketch 54.1 (76490) - https://sketchapp.com -->
    <title>Fluentd_icon</title>
    <desc>Created with Sketch.</desc>
    <defs>
        <linearGradient x1="8.07950676e-06%" y1="49.9999926%" x2="99.9999986%" y2="49.9999926%" id="linearGradient-1">
            <stop stop-color="#2A59A2" offset="0%"></stop>
            <stop stop-color="#2A59A2" offset="100%"></stop>
        </linearGradient>
    </defs>
    <g id="页面1" stroke="none" stroke-width="1" fill="none" fill-rule="evenodd">
        <g id="开源项目" transform="translate(-289.000000, -766.000000)">
            <g id="编组[12v]" transform="translate(236.000000, 502.000000)">
                <g id="Group-11备份-2" transform="translate(1.000000, 232.000000)">
                    <g id="Group-9" transform="translate(44.000000, 20.000000)">
                        <g id="Group-10">
                            <g id="Fluentd_icon">
                                <rect id="矩形" x="0" y="0" width="64" height="64"></rect>
                                <path d="M55.7324717,28.7224556 C55.4804523,28.7224556 55.0927302,28.7224556 54.8756058,28.7224556 C53.3169628,28.7030695 50.3276252,28.86979 47.6174475,31.2116317 C41.1463651,36.8142165 39.6691438,45.0610662 28.5957997,49.5121163 C19.3718901,53.2187399 8,49.7098546 8,49.7098546 C8,49.7098546 18.1466882,49.0042003 19.492084,41.2613893 C20.542811,35.2051696 15.0332795,30.9053312 11.5747981,25.4423263 C8.05815832,19.8785137 7.15476575,15.2568659 8.84911147,13.2600969 C13.6529887,7.58772213 26.8820679,22.9221325 33.4500808,24.9886914 C39.8785137,27.0087237 44.2171244,22.3172859 49.5405493,23.0074313 C51.2387722,23.2245557 52.0684976,23.9573506 52.619063,24.8917609 C52.8051696,25.2058158 53.2626817,26.2759289 53.66979,26.6714055 C54.0691438,27.0591276 54.6003231,27.346042 55.0966074,27.6368336 C55.7285945,28.0090468 56.3528271,28.7224556 55.7324717,28.7224556 Z" id="路径" fill="url(#linearGradient-1)" fill-rule="nonzero"></path>
                                <path d="M25.3311793,19.8513732 C23.7415186,18.6416801 22.101454,17.3738288 20.4885299,16.2184168 L20.4885299,16.2184168 C20.1240711,15.958643 19.7596123,15.7027464 19.3990307,15.4546042 L19.3990307,15.4546042 C15.0759289,12.4962843 11.0668821,10.6429725 8.84911147,13.2600969 C7.15476575,15.2568659 8.05815832,19.8785137 11.5786753,25.4423263 C11.6135703,25.5004847 11.6523425,25.5547658 11.6872375,25.6129241 C13.5211632,28.4510501 18.8407108,35.1004847 31.4494346,34.8174475 C32.2791599,33.9373183 33.5392569,32.2739903 35.1676898,30.4633279 C32.5273021,26.1945073 28.549273,22.4723748 25.3311793,19.8513732 Z" id="路径" fill="#90E0C5" fill-rule="nonzero"></path>
                                <path d="M38.0407108,39.9121163 C38.0911147,38.0200323 37.746042,36.1550889 37.0907916,34.3521809 C35.4352181,34.6003231 33.5702746,34.7709208 31.4494346,34.8174475 C29.9063005,36.4575121 26.3819063,40.8387722 20.542811,44.7857835 C12.7689822,50.0432956 8.00387722,49.7098546 8.00387722,49.7098546 C8.00387722,49.7098546 19.3796446,53.2187399 28.5996769,49.5121163 C31.9069467,48.1822294 34.3612278,46.5150242 36.3463651,44.6772213 C36.6720517,44.3670436 37.9709208,42.7463651 38.0407108,39.9121163 Z" id="路径" fill="#11B27D" fill-rule="nonzero"></path>
                                <path d="M35.171567,30.4633279 C33.5431341,32.2701131 32.2791599,33.9373183 31.4533118,34.8174475 C33.5780291,34.7709208 35.4429725,34.6003231 37.0946688,34.3521809 C36.9008078,33.8132472 36.6759289,33.2820679 36.4277868,32.758643 C36.0555735,31.9793215 35.6329564,31.2116317 35.171567,30.4633279 Z" id="路径" fill="#23C18D" fill-rule="nonzero"></path>
                                <path d="M44.6242326,23.6045234 C41.2200323,24.6358643 37.8197092,26.3612278 33.4500808,24.9886914 C31.2865913,24.3101777 28.3980614,22.1893376 25.3311793,19.8513732 C28.549273,22.4723748 32.5273021,26.19063 35.171567,30.4633279 C37.5831987,27.7919225 40.8012924,24.806462 44.6242326,23.6045234 Z" id="路径" fill="#23C18D" fill-rule="nonzero"></path>
                                <path d="M37.0946688,34.3521809 C37.7499192,36.1550889 38.0949919,38.0200323 38.044588,39.9121163 C37.9709208,42.7424879 36.6720517,44.3631664 36.3463651,44.6772213 C41.0029079,40.3696284 43.0849758,35.1392569 47.6213247,31.2116317 C48.466559,30.4827141 49.3350565,29.9631664 50.184168,29.5948304 L50.1802908,29.5948304 C47.206462,30.8432956 43.9806139,33.3130856 37.0946688,34.3521809 Z" id="路径" fill="#008A5C" fill-rule="nonzero"></path>
                                <path d="M55.7324717,28.7224556 C56.3528271,28.7224556 55.7285945,28.0090468 55.1004847,27.6407108 C54.6042003,27.346042 54.073021,27.0591276 53.6736672,26.6752827 C53.2626817,26.2798061 52.8051696,25.2058158 52.6229402,24.8956381 C52.0684976,23.9573506 51.2426494,23.228433 49.5444265,23.0113086 C47.8384491,22.7903069 46.2332795,23.123748 44.6281099,23.6084006 C40.8051696,24.8103393 37.5831987,27.7957997 35.171567,30.4672052 C35.6329564,31.2155089 36.0594507,31.9793215 36.4277868,32.758643 C36.6759289,33.2859451 36.9008078,33.8171244 37.0946688,34.3521809 C43.9844911,33.3130856 47.206462,30.8432956 50.1802908,29.5948304 L50.184168,29.5948304 C52.0568659,28.7806139 53.80937,28.7069467 54.879483,28.7224556 C55.0966074,28.7224556 55.4843296,28.7224556 55.7324717,28.7224556 Z" id="路径" fill="#00AA72" fill-rule="nonzero"></path>
                                <path d="M20.542811,44.7857835 C26.3819063,40.8387722 29.9063005,36.4575121 31.4494346,34.8174475 C18.8407108,35.1004847 13.5211632,28.4510501 11.6872375,25.6129241 C15.1495961,30.9983845 20.5350565,35.2710824 19.4959612,41.2613893 C18.1505654,49.0042003 8.00387722,49.7098546 8.00387722,49.7098546 C8.00387722,49.7098546 12.7689822,50.0432956 20.542811,44.7857835 Z" id="路径" fill="#23C18D" fill-rule="nonzero"></path>
                                <ellipse id="椭圆形" fill="#FFFFFF" fill-rule="nonzero" cx="49.1915994" cy="25.8959612" rx="1.00807754" ry="1.0003231"></ellipse>
                            </g>
                        </g>
                    </g>
                </g>
            </g>
        </g>
    </g>
</svg>

<svg xmlns="http://www.w3.org/2000/svg" width="64" height="64" viewBox="0 0 64 64">
    <g fill="none" fill-rule="evenodd">
        <path fill="#23C18D" fill-rule="nonzero" d="M55.732 28.722h-.856c-1.559-.019-4.548.148-7.259 2.49-6.47 5.602-7.948 13.85-19.021 18.3C19.372 53.22 8 49.71 8 49.71s10.147-.706 11.492-8.449c1.05-6.056-4.459-10.356-7.917-15.819-3.517-5.563-4.42-10.185-2.726-12.182 4.804-5.672 18.033 9.662 24.601 11.729 6.429 2.02 10.767-2.672 16.09-1.982 1.699.218 2.528.95 3.08 1.885.185.314.643 1.384 1.05 1.78.4.387.93.674 1.427.965.632.372 1.256 1.085.635 1.085z"/>
        <path fill="#90E0C5" fill-rule="nonzero" d="M25.331 19.851c-1.59-1.21-3.23-2.477-4.842-3.633-.365-.26-.73-.515-1.09-.763-4.323-2.959-8.332-4.812-10.55-2.195-1.694 1.997-.79 6.619 2.73 12.182.035.058.073.113.108.17 1.834 2.84 7.154 9.488 19.762 9.205.83-.88 2.09-2.543 3.719-4.354-2.64-4.268-6.619-7.99-9.837-10.612z"/>
        <path fill="#11B27D" fill-rule="nonzero" d="M38.04 39.912c.051-1.892-.294-3.757-.95-5.56-1.655.248-3.52.419-5.64.465-1.544 1.64-5.068 6.022-10.907 9.969-7.774 5.257-12.54 4.924-12.54 4.924s11.377 3.509 20.597-.198c3.307-1.33 5.761-2.997 7.746-4.835.326-.31 1.625-1.93 1.695-4.765z"/>
        <path fill="#23C18D" fill-rule="nonzero" d="M35.172 30.463c-1.629 1.807-2.893 3.474-3.719 4.354a44.42 44.42 0 0 0 5.642-.465 17.754 17.754 0 0 0-.667-1.593 24.525 24.525 0 0 0-1.256-2.296zM44.624 23.605c-3.404 1.03-6.804 2.756-11.174 1.384-2.163-.679-5.052-2.8-8.119-5.138 3.218 2.621 7.196 6.34 9.84 10.612 2.412-2.671 5.63-5.657 9.453-6.858z"/>
        <path fill="#008A5C" fill-rule="nonzero" d="M37.095 34.352c.655 1.803 1 3.668.95 5.56-.074 2.83-1.373 4.451-1.699 4.765 4.657-4.307 6.739-9.538 11.275-13.465a10.005 10.005 0 0 1 2.563-1.617h-.004c-2.974 1.248-6.2 3.718-13.085 4.757z"/>
        <path fill="#00AA72" fill-rule="nonzero" d="M55.732 28.722c.62 0-.003-.713-.632-1.081-.496-.295-1.027-.582-1.426-.966-.411-.395-.869-1.47-1.051-1.78-.555-.938-1.38-1.667-3.079-1.884-1.706-.22-3.31.113-4.916.597-3.823 1.202-7.045 4.188-9.456 6.86.461.748.887 1.511 1.256 2.29.248.528.473 1.06.667 1.594 6.89-1.039 10.111-3.509 13.085-4.757h.004c1.873-.814 3.625-.888 4.695-.873h.853z"/>
        <path fill="#23C18D" fill-rule="nonzero" d="M20.543 44.786c5.839-3.947 9.363-8.328 10.906-9.969-12.608.283-17.928-6.366-19.762-9.204 3.463 5.385 8.848 9.658 7.809 15.648-1.345 7.743-11.492 8.449-11.492 8.449s4.765.333 12.539-4.924z"/>
        <ellipse cx="49.192" cy="25.896" fill="#FFF" fill-rule="nonzero" rx="1.008" ry="1"/>
        <path d="M0 0h64v64H0z"/>
    </g>
</svg>
